!!!ONB: MCCC : ILB0325_03 : Extracted Monophonic Melody
!!!COM: Beethoven, Ludwig van
!!!OPR: Violin Sonata No.4 in A minor
!!!OMV: 3
!!!SCT: Op.23
!!!ODT: 1800///
**kern
*staff1
=1
*clefG2
*k[]
*C:
*M2/2
1e
=2
1e
=3
1e
=4
1e[
=5
4e]
4e
2a
=6
2a
2a
=7
2a
4a
4f#
=8
4f#
4B
2r
=9
4e
4cc
4b
4a
=10
4g#
4a
4b
4cc
=11
4a
4dd
4cc
4b
=12
4a#
4b
4cc
4dd
=13
4b
4cc
4cc#
4dd
=14
4ee
2.ff
=15
8ee
8dd
4cc
4cc
4b
=16
4b
8dd
8cc
8b
8cc
4a
=17
4b
4cc
4cc#
4dd
=18
4ee
2.ff
=19
8ee
8dd
8cc
8dd
8cc
8dd
8b
8cc
=20
8b
8cc
4a
2r
=21
2r
4r
4c
=22
2r
4r
4e
=23
2r
4r
4g
=24
2r
4r
4cc
=25
2r
4r
4ee
=26
4b-
4cc#
4ee
4gg
=27
4bb-
4ccc#
2eee
=28
2.eee
4ddd
=29
1r
=30
4g#
4b
4dd
4ff
=31
4gg#
4bb
2ddd
=32
2.ddd
4ccc
=33
1r
=34
4e-
4f#
4a
4cc
=35
4ee-
4ff#
2aa
=36
2.aa
4gg
=37
2.ccc
4bb
=38
2aa
2gg
=39
2.ff#
4gg
=40
4cc
4b
2r
=41
4dd#
4ee
2r
=42
2cc
2b
=43
4a
4g
8e
8g
4b
=44
2r
8e
8a
4cc
=45
2r
8e
8g
4b
=46
2r
8e
8a
4cc
=47
2r
8e
8g#
4b
=48
2r
8g#
8b
4dd
=49
8b
4.dd
2ff[
=50
2.ff]
4ee
=51
4dd
28cc#
28dd
28cc#
28dd
28cc#
28dd
28ee
2dd
=52
1r
=53
1r
=54
2r
2e[
=55
2e]
2e[
=56
2e]
2e[
=57
2e]
2e[
=58
2.e]
4e
=59
2a
2a
=60
2a
2a
=61
4a
4f#
4f#
4B
=62
2r
4e
4cc
=63
4b
4a
4g#
4a
=64
4b
4cc
4a
4dd
=65
4cc
4b
4a#
4b
=66
4cc
4dd
4b
4cc
=67
4cc#
4dd
4ee
4ff[
=68
2ff]
8ee
8dd
4cc
=69
4cc
4b
4b
8dd
8cc
=70
8b
8cc
4a
4b
4cc
=71
4cc#
4dd
4ee
4ff[
=72
2ff]
8ee
8dd
8cc
8dd
=73
8cc
8dd
8b
8cc
8b
8cc
4a
=74
1r
=75
4r
4cc#
2cc#
=76
4r
4b
2b
=77
4r
4dd
2dd
=78
4r
4cc#
2cc#
=79
4r
4cc#
2cc#
=80
4r
4cc#
2cc#
=81
4r
4cc#
2cc#
=82
4r
2.ff#
=83
4r
4dd
2dd
=84
4r
4cc#
2cc#
=85
4r
4ee
2ee
=86
4r
4dd
2dd
=87
4r
4dd
2dd
=88
4r
4dd
2dd
=89
1gg[
=90
1gg]
=91
4r
4ff
2ff
=92
4r
4ff
2ff
=93
1ee[
=94
2ee]
2e[
=95
2e]
2e[
=96
2e]
2e[
=97
2e]
2e[
=98
2.e]
4e
=99
2a
2a
=100
2a
2a
=101
4a
4f#
4f#
4B
=102
2r
4e
4cc
=103
4b
4a
4g#
4a
=104
4b
4cc
4a
4dd
=105
4cc
4b
4a#
4b
=106
4cc
4dd
4b
4cc
=107
4cc#
4dd
4ee
4ff[
=108
2ff]
8ee
8dd
4cc
=109
4cc
4b
4b
8dd
8cc
=110
8b
8cc
4a
4b
4cc
=111
4cc#
4dd
4ee
4ff[
=112
2ff]
8ee
8dd
8cc
8dd
=113
8cc
8dd
8b
8cc
8b
8cc
4a
=114
2cc
2ff
=115
2ff
2ff
=116
2ee
2bb-
=117
2bb-
2bb-
=118
2aa
2aa
=119
2gg
2gg
=120
2.ff#
12aa
12gg
12aa
=121
12gg
12aa
12gg
4aa
4bb-
4aa[
=122
4aa]
4gg
2r
=123
4b
4b
2cc
=124
4b
4b
2cc
=125
4b
4b
2cc
=126
4b
4b
2cc
=127
4cc#
4cc#
4dd
4ff#
=128
4dd
4gg
4dd
4ff
=129
4cc
4ee
4b-
4a
=130
2cc
2ccc
=131
2ccc
2ccc
=132
2aa
2ddd
=133
2ddd
2ddd
=134
2bb-
2bb-
=135
2gg
2aa
=136
2aa
2aa
=137
2bb-[
4bb-]
4gg
=138
4dd
4cc
4b-
4a
=139
4b
4cc
2dd
=140
4cc
4cc
2cc#
=141
4cc#
4cc#
2dd
=142
4cc#
4cc#
2dd
=143
4b
4b
4cc
4cc
=144
4ff
4dd
4gg
4ff
=145
4cc
4ee
4b-
4a
=146
2cc
2ff
=147
2ff
2ff
=148
2ee
2bb-
=149
2bb-
2bb-
=150
2aa
2aa
=151
2gg
2gg
=152
2.ff#
12aa
12gg
12aa
=153
12gg
12ff#
12gg
4aa
4bb-
4aa[
=154
4aa]
4gg
4r
6a
12cc
=155
4ff
6aa
12gg[
4gg]
6bb-
12gg[
=156
4gg]
6b-
12g[
4g]
6e
12g
=157
4b-
6ee
12ff
4gg
6aa
12ff[
=158
4ff]
6ff
12cc[
4cc]
6dd
12b-[
=159
4b-]
6b-
12g[
4g]
6c
12d
=160
4f#
6B-
12d
4g
6f
12a[
=161
4a]
6e
12c[
4c]
6A
12f
=162
4a
6cc
12ff
4aa
4ccc
=163
2ccc
2ccc
=164
2aa
2ddd
=165
2ddd
2ddd
=166
2bb-
2bb-
=167
2gg
2aa
=168
2aa
2aa
=169
4ff
2bb-
4gg
=170
2r
4r
6A
12c
=171
4f
6a
12b-[
4b-]
6g
12f#
=172
4g
6b-
12a[
4a]
6f#
12a[
=173
4a]
6f#
12g
4a
6b-
12dd[
=174
4dd]
6b-
12cc[
4cc]
6g
12f[
=175
4f]
6d
12c[
4c]
6A
12c
=176
4.f
8f
4g
6f
12c
=177
4f
6e
12c[
4c]
4A
=178
1r
=179
1r
=180
2r
4r
8r
8cc[
=181
4cc]
6cc
12dd
4ee
4gg[
=182
4gg]
4ff
2r
=183
1r
=184
2r
4r
8r
8ee[
=185
4ee]
6ee
12ff#
4gg#
4bb[
=186
4bb]
4aa
2r
=187
4a
4cc
2cc
=188
4a
4cc
2cc
=189
4a
4cc
2cc
=190
4.cc
8cc
2cc
=191
2cc
2cc
=192
2b
2a[
=193
2.a]
4g#
=194
4r
12ee
12dd#
12ee
12dd#
12cc#
12ee-
4ff#[
=195
2.ff#]
4ee
=196
4r
12gg#
12ff#
12gg#
12ff#
12ee
12ff#
4aa[
=197
2.aa]
4gg#
=198
4r
4aa#
4r
4bb
=199
2r
4r
4ccc
=200
2r
4r
4ccc#
=201
2r
4r
4ddd
=202
2r
2gg#
=203
1gg#[
=204
2gg#]
2e[
=205
2e]
2e[
=206
2e]
2e[
=207
2e]
2e[
=208
2.e]
4e
=209
2a
2a
=210
2a
2a
=211
4a
4f#
4f#
4B
=212
2r
4e
4cc
=213
4b
4a
4g#
4a
=214
4b
4cc
4a
4dd
=215
4cc
4b
4a#
4b
=216
4cc
4dd
4b
4cc
=217
4cc#
4dd
4ee
4ff[
=218
2ff]
8ee
8dd
4cc
=219
4cc
4b
4b
8dd
8cc
=220
8b
8cc
4a
4b
4cc
=221
4cc#
4dd
4ee
4ff[
=222
2ff]
8ee
8dd
8cc
8dd
=223
8cc
8dd
8b
8cc
8b
8cc
4a
=224
2e
2r
=225
2e
2r
=226
2g
2r
=227
2g
2r
=228
2g
2r
=229
8r
16r
16e
4ee
2r
=230
2a
4r
8r
8cc[
=231
2cc]
4b
4cc
=232
8e
8a
8cc
8a
8cc
8a
8cc
8a
=233
8e
8a
8cc
8a
8cc
8a
8dd
8b
=234
8g
8b
8dd
8b
8dd
8b
8dd
8b
=235
8g
8b
8dd
8b
8dd
8b
8ee
8cc
=236
8g
8cc
8ee
8cc
8ee
8cc
8ee
8cc#
=237
8a
8cc#
8ee
8cc#
8ee
8cc#
8ff
8dd
=238
8a
8dd
8ff
8dd
8ff
8dd
8cc
8ee
=239
8cc
8a
8g#
8ee
8b
8g#
8ee
8cc
=240
8a
8cc
8ee
8cc
8ee
8cc
8ee
8cc#
=241
8a
8cc#
8ee
8cc#
8ee
8cc#
8ff
8dd
=242
8a
8dd
8ff
8dd
8ff
8dd
8cc
8ee
=243
8cc
8a
8g#
8ee
8b
8g#
8ee
8cc
=244
8a
8cc
8ee
8cc
8ee
8cc
8ee
8cc#
=245
8a
8cc#
8ee
8cc#
8ee
8cc#
8ff
8dd
=246
8a
8dd
8ff
8dd
8ff
8dd
8ff
8dd
=247
8a
8f
16d
16a
16a
16f
2f
=248
1c[
=249
2c]
2r
=250
2r
4e-
4f#
=251
4a
4cc
4ee-
4ff#
=252
2aa
2aa[
=253
4aa]
4gg#
2r
=254
2r
4g#
4b
=255
4dd
4ff
4gg#
4bb
=256
2ddd
2ddd[
=257
4ddd]
4ccc
2r
=258
2r
4ee-
4ee
=259
4gg
4bb-
4ccc#
4eee
=260
2ggg
2ggg[
=261
4ggg]
4fff
2fff[
=262
4fff]
4eee
2ddd
=263
2ccc
2bb[
=264
4bb]
4ccc
2gg[
=265
4gg]
4ff
2ff[
=266
4ff]
4ee
2dd
=267
2cc
2b
=268
1r
=269
4r
4cc#
2cc#
=270
4r
4b
2b
=271
4r
4dd
2dd
=272
4r
4cc#
2cc#
=273
4r
4ee
2ee
=274
4r
4ff
2ff
=275
1ff
=276
2ff
2b-
=277
2b-
2b-
=278
2a
2ee-
=279
2ee-
2ee-
=280
2dd
2dd
=281
2cc
2cc
=282
2.b
12dd
12cc
12dd
=283
12cc
12b
12cc
8dd
8ee-
2ee-
=284
4dd
4cc
2r
=285
4b-
4dd
2ff
=286
1r
=287
4a
4cc
2ff
=288
1r
=289
4b
4dd
2ff
=290
1r
=291
4g#
4b
2ee
=292
1r
=293
4a
4cc
2aa
=294
1r
=295
4cc
4ee
2aa
=296
1r
=297
4dd
4gg#
2bb
=298
1r
=299
4gg#
4bb
2ddd
=300
1r
=301
4bb
4ddd
2fff
=302
1r
=303
1r
=304
2r
4ee
4aa
=305
4bb
4ccc
4ddd
4ccc
=306
4bb
4aa
4ccc
4bb
=307
4ccc
4ddd
4eee
4ddd
=308
4ccc
4bb
4gg#
4aa
=309
4gg
4ff
4ee
4dd
=310
4cc#
4dd
4ee
4ff
=311
4ff
4ff#
4ff#
4b
=312
2r
4r
8a
8ee
=313
8b
8ee
8cc
8ee
8dd
8ee
8cc
8ee
=314
8b
8ee
8a
8ee
8cc
8ee
8b
8ee
=315
8a
8ee
8g#
8ee
8f#
8ee
8g#
8ee
=316
8a
8ee
8b
8ee
8g#
8ee
8a
8g#
=317
8a
8g#
8a
8g
8f
8e
8d
8c#
=318
8d
8e
8f
8d
8c
8B
8A
8c
=319
8e
8a
8G#
8B
8e
8g#
8A
8c
=320
8d
8e
8f#
8g#
8a
8g#
8a
8g#
=321
8a
8g#
8a
8g
8f
8e
8d
8c#
=322
8d
8e
8f
8d
8c
8B
8A
8c
=323
8e
8a
8G#
8B
8e
8g#
8A
8e
=324
8a
8cc
4ee
4r
8r
8e
=325
8b
8dd
4ee
4r
8r
8e
=326
8a
8cc
4ee
4r
8r
8e
=327
8b
8dd
4ee
4r
8r
8ee
=328
8aa
8ccc
4eee
4r
8r
8ee
=329
8bb
8ddd
4eee
2eee
=330
4ccc
4aa
4ee
4cc
=331
4a
8e
8e
2c
=332
1A
=333
1r
==
*-
